static/img/kroki/6bfed06734bd7fc0b1413f5ab2ebcf26.svg

<?xml version="1.0" encoding="us-ascii" standalone="no"?><svg xmlns="http://www.w3.org/2000/svg" xmlns:xlink="http://www.w3.org/1999/xlink" contentStyleType="text/css" height="252px" preserveAspectRatio="none" style="width:640px;height:252px;" version="1.1" viewBox="0 0 640 252" width="640px" zoomAndPan="magnify"><defs/><g><!--class azure_machine_learning_batch_endpoint--><g id="elem_azure_machine_learning_batch_endpoint"><rect codeLine="23" fill="#3D176E" height="39.7891" id="azure_machine_learning_batch_endpoint" rx="2.5" ry="2.5" style="stroke:#000D19;stroke-width:0.5;" width="385" x="130.5" y="106.79"/><ellipse cx="145.5" cy="126.6845" fill="#ADD1B2" rx="11" ry="11" style="stroke:#181818;stroke-width:1.0;"/><path d="M148.4688,132.3252 Q147.8906,132.622 147.25,132.7627 Q146.6094,132.9189 145.9063,132.9189 Q143.4063,132.9189 142.0781,131.2783 Q140.7656,129.622 140.7656,126.497 Q140.7656,123.372 142.0781,121.7158 Q143.4063,120.0595 145.9063,120.0595 Q146.6094,120.0595 147.25,120.2158 Q147.9063,120.372 148.4688,120.6689 L148.4688,123.3877 Q147.8438,122.8095 147.25,122.5439 Q146.6563,122.2627 146.0313,122.2627 Q144.6875,122.2627 144,123.3408 Q143.3125,124.4033 143.3125,126.497 Q143.3125,128.5908 144,129.6689 Q144.6875,130.7314 146.0313,130.7314 Q146.6563,130.7314 147.25,130.4658 Q147.8438,130.1845 148.4688,129.6064 L148.4688,132.3252 Z " fill="#000000"/><text fill="#D9B8FF" font-family="Helvetica" font-size="17" lengthAdjust="spacing" textLength="343" x="164.5" y="132.5698">azure_machine_learning_batch_endpoint</text></g><!--class azure_machine_learning_workspace--><g id="elem_azure_machine_learning_workspace"><rect codeLine="26" fill="#3D176E" height="39.7891" id="azure_machine_learning_workspace" rx="2.5" ry="2.5" style="stroke:#000D19;stroke-width:0.5;" width="344" x="151" y="7"/><ellipse cx="166" cy="26.8945" fill="#ADD1B2" rx="11" ry="11" style="stroke:#181818;stroke-width:1.0;"/><path d="M168.9688,32.5352 Q168.3906,32.832 167.75,32.9727 Q167.1094,33.1289 166.4063,33.1289 Q163.9063,33.1289 162.5781,31.4883 Q161.2656,29.832 161.2656,26.707 Q161.2656,23.582 162.5781,21.9258 Q163.9063,20.2695 166.4063,20.2695 Q167.1094,20.2695 167.75,20.4258 Q168.4063,20.582 168.9688,20.8789 L168.9688,23.5977 Q168.3438,23.0195 167.75,22.7539 Q167.1563,22.4727 166.5313,22.4727 Q165.1875,22.4727 164.5,23.5508 Q163.8125,24.6133 163.8125,26.707 Q163.8125,28.8008 164.5,29.8789 Q165.1875,30.9414 166.5313,30.9414 Q167.1563,30.9414 167.75,30.6758 Q168.3438,30.3945 168.9688,29.8164 L168.9688,32.5352 Z " fill="#000000"/><text fill="#D9B8FF" font-family="Helvetica" font-size="17" lengthAdjust="spacing" textLength="302" x="185" y="32.7798">azure_machine_learning_workspace</text></g><!--class microsoft_graph_service_principal--><g id="elem_microsoft_graph_service_principal"><rect codeLine="29" fill="#3D176E" height="39.7891" id="microsoft_graph_service_principal" rx="2.5" ry="2.5" style="stroke:#000D19;stroke-width:0.5;" width="324" x="7" y="206.58"/><ellipse cx="22" cy="226.4745" fill="#ADD1B2" rx="11" ry="11" style="stroke:#181818;stroke-width:1.0;"/><path d="M24.9688,232.1152 Q24.3906,232.412 23.75,232.5527 Q23.1094,232.7089 22.4063,232.7089 Q19.9063,232.7089 18.5781,231.0683 Q17.2656,229.412 17.2656,226.287 Q17.2656,223.162 18.5781,221.5058 Q19.9063,219.8495 22.4063,219.8495 Q23.1094,219.8495 23.75,220.0058 Q24.4063,220.162 24.9688,220.4589 L24.9688,223.1777 Q24.3438,222.5995 23.75,222.3339 Q23.1563,222.0527 22.5313,222.0527 Q21.1875,222.0527 20.5,223.1308 Q19.8125,224.1933 19.8125,226.287 Q19.8125,228.3808 20.5,229.4589 Q21.1875,230.5214 22.5313,230.5214 Q23.1563,230.5214 23.75,230.2558 Q24.3438,229.9745 24.9688,229.3964 L24.9688,232.1152 Z " fill="#000000"/><text fill="#D9B8FF" font-family="Helvetica" font-size="17" lengthAdjust="spacing" textLength="282" x="41" y="232.3598">microsoft_graph_service_principal</text></g><!--class microsoft_graph_user--><g id="elem_microsoft_graph_user"><rect codeLine="32" fill="#3D176E" height="39.7891" id="microsoft_graph_user" rx="2.5" ry="2.5" style="stroke:#000D19;stroke-width:0.5;" width="222" x="411" y="206.58"/><ellipse cx="426" cy="226.4745" fill="#ADD1B2" rx="11" ry="11" style="stroke:#181818;stroke-width:1.0;"/><path d="M428.9688,232.1152 Q428.3906,232.412 427.75,232.5527 Q427.1094,232.7089 426.4063,232.7089 Q423.9063,232.7089 422.5781,231.0683 Q421.2656,229.412 421.2656,226.287 Q421.2656,223.162 422.5781,221.5058 Q423.9063,219.8495 426.4063,219.8495 Q427.1094,219.8495 427.75,220.0058 Q428.4063,220.162 428.9688,220.4589 L428.9688,223.1777 Q428.3438,222.5995 427.75,222.3339 Q427.1563,222.0527 426.5313,222.0527 Q425.1875,222.0527 424.5,223.1308 Q423.8125,224.1933 423.8125,226.287 Q423.8125,228.3808 424.5,229.4589 Q425.1875,230.5214 426.5313,230.5214 Q427.1563,230.5214 427.75,230.2558 Q428.3438,229.9745 428.9688,229.3964 L428.9688,232.1152 Z " fill="#000000"/><text fill="#D9B8FF" font-family="Helvetica" font-size="17" lengthAdjust="spacing" textLength="180" x="445" y="232.3598">microsoft_graph_user</text></g><!--link azure_machine_learning_batch_endpoint to microsoft_graph_service_principal--><g id="link_azure_machine_learning_batch_endpoint_microsoft_graph_service_principal"><path codeLine="35" d="M292.57,147.01 C265.58,164.15 231.4044,185.8426 204.4244,202.9826 " fill="none" id="azure_machine_learning_batch_endpoint-to-microsoft_graph_service_principal" style="stroke:#1A83AF;stroke-width:2.0;"/><polygon fill="#1A83AF" points="199.36,206.2,209.1016,204.7502,203.5804,203.5189,204.8118,197.9977,199.36,206.2" style="stroke:#1A83AF;stroke-width:2.0;"/></g><!--link azure_machine_learning_batch_endpoint to microsoft_graph_user--><g id="link_azure_machine_learning_batch_endpoint_microsoft_graph_user"><path codeLine="36" d="M362.32,147.01 C397.2,164.15 442.5153,186.4132 477.3853,203.5532 " fill="none" id="azure_machine_learning_batch_endpoint-to-microsoft_graph_user" style="stroke:#1A83AF;stroke-width:2.0;"/><polygon fill="#1A83AF" points="482.77,206.2,476.4575,198.6401,478.2828,203.9944,472.9285,205.8196,482.77,206.2" style="stroke:#1A83AF;stroke-width:2.0;"/></g><!--link azure_machine_learning_workspace to azure_machine_learning_batch_endpoint--><g id="link_azure_machine_learning_workspace_azure_machine_learning_batch_endpoint"><path codeLine="37" d="M323,47.22 C323,64.36 323,83.27 323,100.41 " fill="none" id="azure_machine_learning_workspace-to-azure_machine_learning_batch_endpoint" style="stroke:#1A83AF;stroke-width:2.0;"/><polygon fill="#1A83AF" points="323,106.41,327,97.41,323,101.41,319,97.41,323,106.41" style="stroke:#1A83AF;stroke-width:2.0;"/></g><!--link azure_machine_learning_workspace to microsoft_graph_service_principal--><g id="link_azure_machine_learning_workspace_microsoft_graph_service_principal"><path codeLine="38" d="M199.99,47.28 C166.26,58.86 133.4,77.34 113,106.79 C90.56,139.19 119.8037,177.7312 143.8637,202.0912 " fill="none" id="azure_machine_learning_workspace-to-microsoft_graph_service_principal" style="stroke:#1A83AF;stroke-width:2.0;"/><polygon fill="#1A83AF" points="148.08,206.36,144.6015,197.1459,144.5664,202.8026,138.9097,202.7676,148.08,206.36" style="stroke:#1A83AF;stroke-width:2.0;"/></g><!--link azure_machine_learning_workspace to microsoft_graph_user--><g id="link_azure_machine_learning_workspace_microsoft_graph_user"><path codeLine="39" d="M446.01,47.28 C479.74,58.86 512.6,77.34 533,106.79 C553.62,136.56 543.1441,175.5214 533.0341,200.7214 " fill="none" id="azure_machine_learning_workspace-to-microsoft_graph_user" style="stroke:#1A83AF;stroke-width:2.0;"/><polygon fill="#1A83AF" points="530.8,206.29,537.8635,199.4265,532.6617,201.6495,530.4387,196.4478,530.8,206.29" style="stroke:#1A83AF;stroke-width:2.0;"/></g><!--SRC=[hPBDIiD058NtUOg1hWkDHTjkX5WekYbYtOc4cvaxpP1a9joPjBJYkvkqAcbYaofkvtmvFvV4IY33B7Sxbc4M8LdF9ahdG92nWCXivoOrn0PIWXnFckB2QDSBB253Te_f1ftYq2IUOyKJZTQogvfq1pnPaocqEDex0crB2RMhKVCKh0sS8nKL3cjbn2oQIjaacwQ3iV0dDzZ230caJsGq6Wb_raHwepftVnChjKVcru-sD0vRDLiH1wgpPKNKIhQ6VkbdEpw244glsNNjxUdOYJJIoVig1c6s5IqXjVKOwv3Gk5sEyzOgd4s5dFm8Fvo3FLwTZi6-80mpuB7I6AO8fClqC0B7un2ro8tIZhrvtdlt1rj3IVbNSQopcU9ah94kN1FaSMYHDefZc9FINEMGTi55IH_ropeENmP-C1q7YzVXRN_oVvXM3RtUUvnON9JwIyy_RxtGxp3p0m00]--></g></svg>

<svg xmlns="http://www.w3.org/2000/svg" width="640" height="252" viewBox="0 0 640 252"><rect width="385" height="39.789" x="130.5" y="106.79" fill="#3D176E" rx="2.5" ry="2.5" style="stroke:#000d19;stroke-width:.5"/><circle cx="145.5" cy="126.684" r="11" fill="#ADD1B2" style="stroke:#181818;stroke-width:1"/><path d="M148.469 132.325q-.578.297-1.219.438-.64.156-1.344.156-2.5 0-3.828-1.64-1.312-1.657-1.312-4.782t1.312-4.781q1.328-1.656 3.828-1.656.703 0 1.344.156.656.156 1.219.453v2.719q-.625-.579-1.219-.844-.594-.281-1.219-.281-1.344 0-2.031 1.078-.687 1.062-.687 3.156t.687 3.172q.688 1.062 2.031 1.062.625 0 1.219-.265.594-.281 1.219-.86z"/><text x="164.5" y="132.57" fill="#D9B8FF" font-family="Helvetica" font-size="17" textLength="343">azure_machine_learning_batch_endpoint</text><rect width="344" height="39.789" x="151" y="7" fill="#3D176E" rx="2.5" ry="2.5" style="stroke:#000d19;stroke-width:.5"/><circle cx="166" cy="26.895" r="11" fill="#ADD1B2" style="stroke:#181818;stroke-width:1"/><path d="M168.969 32.535q-.578.297-1.219.438-.64.156-1.344.156-2.5 0-3.828-1.64-1.312-1.657-1.312-4.782t1.312-4.781q1.328-1.656 3.828-1.656.703 0 1.344.156.656.156 1.219.453v2.719q-.625-.578-1.219-.844-.594-.281-1.219-.281-1.344 0-2.031 1.078-.687 1.062-.687 3.156t.687 3.172q.688 1.062 2.031 1.062.625 0 1.219-.265.594-.281 1.219-.86z"/><text x="185" y="32.78" fill="#D9B8FF" font-family="Helvetica" font-size="17" textLength="302">azure_machine_learning_workspace</text><rect width="324" height="39.789" x="7" y="206.58" fill="#3D176E" rx="2.5" ry="2.5" style="stroke:#000d19;stroke-width:.5"/><circle cx="22" cy="226.475" r="11" fill="#ADD1B2" style="stroke:#181818;stroke-width:1"/><path d="M24.969 232.115q-.578.297-1.219.438-.64.156-1.344.156-2.5 0-3.828-1.64-1.312-1.657-1.312-4.782t1.312-4.781q1.328-1.656 3.828-1.656.703 0 1.344.156.656.156 1.219.453v2.719q-.625-.578-1.219-.844-.594-.281-1.219-.281-1.343 0-2.031 1.078-.687 1.062-.687 3.156t.687 3.172q.688 1.062 2.031 1.062.625 0 1.219-.265.594-.281 1.219-.86z"/><text x="41" y="232.36" fill="#D9B8FF" font-family="Helvetica" font-size="17" textLength="282">microsoft_graph_service_principal</text><rect width="222" height="39.789" x="411" y="206.58" fill="#3D176E" rx="2.5" ry="2.5" style="stroke:#000d19;stroke-width:.5"/><circle cx="426" cy="226.475" r="11" fill="#ADD1B2" style="stroke:#181818;stroke-width:1"/><path d="M428.969 232.115q-.578.297-1.219.438-.64.156-1.344.156-2.5 0-3.828-1.64-1.312-1.657-1.312-4.782t1.312-4.781q1.328-1.656 3.828-1.656.703 0 1.344.156.656.156 1.219.453v2.719q-.625-.578-1.219-.844-.594-.281-1.219-.281-1.344 0-2.031 1.078-.687 1.062-.687 3.156t.687 3.172q.688 1.062 2.031 1.062.625 0 1.219-.265.594-.281 1.219-.86z"/><text x="445" y="232.36" fill="#D9B8FF" font-family="Helvetica" font-size="17" textLength="180">microsoft_graph_user</text><path fill="none" d="M292.57 147.01c-26.99 17.14-61.166 38.833-88.146 55.973" style="stroke:#1a83af;stroke-width:2"/><path fill="#1A83AF" d="m199.36 206.2 9.742-1.45-5.522-1.231 1.232-5.521z" style="stroke:#1a83af;stroke-width:2"/><path fill="none" d="M362.32 147.01c34.88 17.14 80.195 39.403 115.065 56.543" style="stroke:#1a83af;stroke-width:2"/><path fill="#1A83AF" d="m482.77 206.2-6.312-7.56 1.825 5.354-5.355 1.826z" style="stroke:#1a83af;stroke-width:2"/><path fill="none" d="M323 47.22v53.19" style="stroke:#1a83af;stroke-width:2"/><path fill="#1A83AF" d="m323 106.41 4-9-4 4-4-4z" style="stroke:#1a83af;stroke-width:2"/><path fill="none" d="M199.99 47.28C166.26 58.86 133.4 77.34 113 106.79c-22.44 32.4 6.804 70.941 30.864 95.301" style="stroke:#1a83af;stroke-width:2"/><path fill="#1A83AF" d="m148.08 206.36-3.479-9.214-.035 5.657-5.656-.035z" style="stroke:#1a83af;stroke-width:2"/><path fill="none" d="M446.01 47.28c33.73 11.58 66.59 30.06 86.99 59.51 20.62 29.77 10.144 68.731.034 93.931" style="stroke:#1a83af;stroke-width:2"/><path fill="#1A83AF" d="m530.8 206.29 7.064-6.863-5.202 2.222-2.223-5.201z" style="stroke:#1a83af;stroke-width:2"/></svg>
